logo/EF_GRY-OR_svg.svg

<svg viewBox="0 0 373.33 195" xmlns="http://www.w3.org/2000/svg"><path d="m316.56 131.3-8.67-11h-2.71v17.7h3.34v-12l9.31 12h2.07v-17.69h-3.34zm-32.41-8.3c4.17 0 5.84 3.34 5.79 6.33s-1.62 6-5.79 6-5.74-3.11-5.81-6 1.66-6.33 5.81-6.33zm0-3c-6.12 0-9.1 4.68-9.1 9.33s2.88 9.13 9.1 9.13 9-4.58 9.08-9.16-2.98-9.3-9.08-9.3zm-21.23 18v-17.69h-3.32v17.69zm-23.56 0h3.34v-14.66h5.61v-3h-14.57v3h5.62zm-18.91-6.44h-6.58l3.29-7.56zm2.83 6.44h3.64l-7.92-17.69h-3.64l-7.96 17.69h3.6l1.51-3.33h9.26zm-38-14.56h3.64c3.85 0 5.46 2.76 5.54 5.52s-1.52 5.83-5.54 5.83h-3.64zm3.64-3.16h-6.92v17.72h6.95c6.2 0 8.93-4.52 8.85-9s-2.8-8.69-8.88-8.69zm-22.37 11-8.67-11h-2.71v17.72h3.34v-12l9.3 12h2.08v-17.69h-3.34zm-27.46-10.94v10.16c0 3-1.56 4.88-4.32 4.88s-4.58-1.69-4.58-4.88v-10.14h-3.31v10.14c0 5.33 3.62 7.91 7.86 7.91 4.45 0 7.67-2.68 7.67-7.91v-10.14zm-33 2.65c4.17 0 5.84 3.34 5.79 6.33s-1.62 6-5.79 6-5.74-3.11-5.82-6 1.66-6.32 5.83-6.32zm0-3c-6.12 0-9.1 4.68-9.1 9.33s2.88 9.13 9.1 9.13 9-4.58 9.08-9.16-2.98-9.29-9.07-9.29zm-29.77 18.01v-6.54h8.87v-3.06h-8.87v-4.83h9.38v-3.21h-12.7v17.64z" fill="#f79422"/><path d="m320.23 101.75h-22.17v-8.91h21.38v-6.94h-21.38v-9.14h22.17v-7.22h-29.56v39.54h29.56zm-40-25.66c-3-6.1-9.36-7.84-15.51-7.84-7.28 0-15.29 3.38-15.29 11.5 0 8.86 7.45 11 15.51 12 5.25.56 9.14 2.09 9.14 5.81 0 4.29-4.4 5.92-9.08 5.92s-9.36-1.92-11.11-6.26l-6.21 3.22c2.94 7.22 9.14 9.7 17.21 9.7 8.8 0 16.58-3.78 16.58-12.58 0-9.42-7.67-11.56-15.91-12.58-4.73-.56-8.79-1.52-8.79-5 0-2.93 2.65-5.25 8.17-5.25 4.29 0 8 2.15 9.37 4.4zm-53.34-6.55c-6.21-.05-12.41 0-18.62 0v39.54h7.45v-11.62h11.17c19.36 0 19.31-27.92.02-27.92zm-11.17 7.11h11.17c9.47 0 9.53 14 0 14h-11.15zm-18 32.43v-39.54h-7.39v39.54zm-44-39.54v39.54h27.75v-6.88h-20.25v-32.66zm-12.17 29.46a14.53 14.53 0 0 1 -9.92 4c-9.76 0-13.54-6.82-13.6-13.37s4.06-13.7 13.6-13.7a13.56 13.56 0 0 1 9.53 3.72l5-4.79a20.35 20.35 0 0 0 -14.49-6c-14.27 0-21 10.49-20.93 20.81s6.26 20.33 20.89 20.33a20.83 20.83 0 0 0 15-5.87zm-39 2.76h-22.18v-8.92h21.38v-6.94h-21.38v-9.14h22.17v-7.22h-29.54v39.54h29.56z" fill="#3d3c3b"/><path d="m60.66 65.52c9-14.1 27.15-19 42.25-12.25l-1-.69a33.16 33.16 0 1 0 -35.8 55.83l1.05.63c-12.47-10.9-15.55-29.41-6.5-43.52z" fill="#f79422"/><path d="m323 73.41a4.58 4.58 0 1 1 9.16 0 4.58 4.58 0 1 1 -9.16 0zm8.63 0a4.05 4.05 0 1 0 -8.1 0 4 4 0 0 0 4.05 4.08 4.07 4.07 0 0 0 4.09-4.11zm-5.94-2.47h2.31c1.11 0 1.92.5 1.92 1.58a1.46 1.46 0 0 1 -1.09 1.48l1.17 1.67h-1.39l-1-1.5h-.74v1.5h-1.15zm2.15 2.31c.53 0 .82-.26.82-.65s-.32-.66-.82-.66h-1v1.31z" fill="#3d3c3b"/></svg>

<svg xmlns="http://www.w3.org/2000/svg" viewBox="0 0 373.33 195"><defs><style>.cls-1{fill:#f79422;}.cls-2{fill:#3d3c3b;}</style></defs><title>EF_all_colours_ai</title><g id="Layer_1" data-name="Layer 1"><path class="cls-1" d="M316.56,131.3l-8.67-11h-2.71V138h3.34v-12l9.31,12h2.07V120.31h-3.34ZM284.15,123c4.17,0,5.84,3.34,5.79,6.33s-1.62,6-5.79,6-5.74-3.11-5.81-6S280,123,284.15,123Zm0-3c-6.12,0-9.1,4.68-9.1,9.33s2.88,9.13,9.1,9.13,9-4.58,9.08-9.16S290.25,120,284.15,120Zm-21.23,18V120.31H259.6V138Zm-23.56,0h3.34V123.34h5.61v-3H233.74v3h5.62Zm-18.91-6.44h-6.58l3.29-7.56Zm2.83,6.44h3.64L219,120.31h-3.64L207.4,138H211l1.51-3.33h9.26Zm-38-14.56h3.64c3.85,0,5.46,2.76,5.54,5.52s-1.52,5.83-5.54,5.83h-3.64Zm3.64-3.16H182V138h6.95c6.2,0,8.93-4.52,8.85-9S195,120.31,188.92,120.31Zm-22.37,11-8.67-11h-2.71V138h3.34v-12l9.3,12h2.08V120.31h-3.34Zm-27.46-10.94V130.5c0,3-1.56,4.88-4.32,4.88s-4.58-1.69-4.58-4.88V120.36h-3.31V130.5c0,5.33,3.62,7.91,7.86,7.91,4.45,0,7.67-2.68,7.67-7.91V120.36Zm-33,2.65c4.17,0,5.84,3.34,5.79,6.33s-1.62,6-5.79,6-5.74-3.11-5.82-6S101.93,123,106.1,123Zm0-3c-6.12,0-9.1,4.68-9.1,9.33s2.88,9.13,9.1,9.13,9-4.58,9.08-9.16S112.19,120,106.1,120ZM76.32,138v-6.54h8.87V128.4H76.32v-4.83H85.7v-3.21H73V138Z"/><path class="cls-2" d="M320.23,101.75H298.06V92.84h21.38V85.9H298.06V76.76h22.17V69.54H290.67v39.54h29.56Zm-40-25.66c-3-6.1-9.36-7.84-15.51-7.84-7.28,0-15.29,3.38-15.29,11.5,0,8.86,7.45,11,15.51,12,5.25.56,9.14,2.09,9.14,5.81,0,4.29-4.4,5.92-9.08,5.92s-9.36-1.92-11.11-6.26l-6.21,3.22c2.94,7.22,9.14,9.7,17.21,9.7,8.8,0,16.58-3.78,16.58-12.58,0-9.42-7.67-11.56-15.91-12.58-4.73-.56-8.79-1.52-8.79-5,0-2.93,2.65-5.25,8.17-5.25,4.29,0,8,2.15,9.37,4.4Zm-53.34-6.55c-6.21-.05-12.41,0-18.62,0v39.54h7.45V97.46h11.17C246.25,97.46,246.2,69.54,226.91,69.54Zm-11.17,7.11h11.17c9.47,0,9.53,14,0,14H215.74Zm-18,32.43V69.54h-7.39v39.54Zm-44-39.54v39.54h27.75V102.2H161.22V69.54ZM141.55,99a14.53,14.53,0,0,1-9.92,4c-9.76,0-13.54-6.82-13.6-13.37s4.06-13.7,13.6-13.7a13.56,13.56,0,0,1,9.53,3.72l5-4.79a20.35,20.35,0,0,0-14.49-6c-14.27,0-21,10.49-20.93,20.81S117,110,131.63,110a20.83,20.83,0,0,0,15-5.87Zm-39,2.76H80.37V92.84h21.38V85.9H80.37V76.76h22.17V69.54H73v39.54h29.56Z"/><path class="cls-1" d="M60.66,65.52c9-14.1,27.15-19,42.25-12.25l-1-.69a33.16,33.16,0,1,0-35.8,55.83l1.05.63C54.69,98.14,51.61,79.63,60.66,65.52Z"/><path class="cls-2" d="M323,73.41v0a4.58,4.58,0,1,1,9.16,0v0a4.58,4.58,0,1,1-9.16,0Zm8.63,0v0a4.05,4.05,0,1,0-8.1,0v0a4,4,0,0,0,4.05,4.08A4.07,4.07,0,0,0,331.67,73.38Zm-5.94-2.47H328c1.11,0,1.92.5,1.92,1.58A1.46,1.46,0,0,1,328.83,74L330,75.67h-1.39l-1-1.5h-.74v1.5h-1.15Zm2.15,2.31c.53,0,.82-.26.82-.65s-.32-.66-.82-.66h-1v1.31Z"/></g></svg>
